src/svg/monochrome/16/inactive.svg

<svg width="16" height="16" viewBox="0 0 16 16" fill="none" xmlns="http://www.w3.org/2000/svg">
<g id="inactive">
<path id="Vector (Stroke)" d="M9.17139 13.8857C9.44228 13.8322 9.70569 14.0084 9.75928 14.2793C9.8128 14.5501 9.6365 14.8131 9.36572 14.8667C8.92366 14.9542 8.46686 15 8 15C7.53314 15 7.07634 14.9542 6.63428 14.8667C6.3635 14.8131 6.1872 14.5501 6.24072 14.2793C6.29431 14.0084 6.55772 13.8322 6.82861 13.8857C7.20707 13.9606 7.59869 14 8 14C8.40131 14 8.79293 13.9606 9.17139 13.8857ZM2.31689 11.1958C2.53199 11.052 2.81802 11.0973 2.97949 11.2925L3.01025 11.3335L3.18066 11.5742C3.53244 12.0477 3.9523 12.4676 4.42578 12.8193L4.6665 12.9897L4.70752 13.0205C4.9027 13.182 4.94801 13.468 4.8042 13.6831C4.6602 13.8982 4.37803 13.9661 4.1543 13.8472L4.11035 13.8208L3.96826 13.7231C3.31239 13.2603 2.73968 12.6876 2.27686 12.0317L2.1792 11.8896L2.15283 11.8457C2.03393 11.622 2.10181 11.3398 2.31689 11.1958ZM13.0205 11.2925C13.182 11.0973 13.468 11.052 13.6831 11.1958C13.9125 11.3494 13.9744 11.6602 13.8208 11.8896L13.7231 12.0317C13.2272 12.7345 12.605 13.3419 11.8896 13.8208L11.8457 13.8472C11.622 13.9661 11.3398 13.8982 11.1958 13.6831C11.0424 13.4537 11.1041 13.1433 11.3335 12.9897L11.5742 12.8193C12.1266 12.409 12.6063 11.9062 12.9897 11.3335L13.0205 11.2925ZM1 8C1 7.53314 1.04585 7.07634 1.1333 6.63428C1.18695 6.3635 1.44989 6.1872 1.7207 6.24072C1.9916 6.29431 2.16785 6.55772 2.11426 6.82861C2.03939 7.20707 2 7.59869 2 8C2 8.40131 2.03939 8.79293 2.11426 9.17139C2.16785 9.44228 1.9916 9.70569 1.7207 9.75928C1.44989 9.8128 1.18695 9.6365 1.1333 9.36572C1.04585 8.92366 1 8.46686 1 8ZM14 8C14 7.59869 13.9606 7.20707 13.8857 6.82861L14.8667 6.63428C14.9542 7.07634 15 7.53314 15 8C15 8.46686 14.9542 8.92366 14.8667 9.36572C14.8131 9.6365 14.5501 9.8128 14.2793 9.75928C14.0084 9.70569 13.8322 9.44228 13.8857 9.17139C13.9606 8.79293 14 8.40131 14 8ZM14.2793 6.24072C14.5501 6.1872 14.8131 6.3635 14.8667 6.63428L13.8857 6.82861C13.8322 6.55772 14.0084 6.29431 14.2793 6.24072ZM4.1543 2.15283C4.37803 2.03393 4.6602 2.10181 4.8042 2.31689C4.9576 2.54633 4.89588 2.85669 4.6665 3.01025L4.42578 3.18066C3.87343 3.59104 3.39368 4.09381 3.01025 4.6665L2.97949 4.70752C2.81802 4.9027 2.53199 4.94801 2.31689 4.8042C2.08745 4.65059 2.02564 4.33981 2.1792 4.11035L2.27686 3.96826C2.77278 3.26548 3.39496 2.65814 4.11035 2.1792L4.1543 2.15283ZM11.1958 2.31689C11.3398 2.10181 11.622 2.03393 11.8457 2.15283L11.8896 2.1792L12.0317 2.27686C12.6876 2.73968 13.2603 3.31239 13.7231 3.96826L13.8208 4.11035L13.8472 4.1543C13.9661 4.37803 13.8982 4.6602 13.6831 4.8042C13.468 4.94801 13.182 4.9027 13.0205 4.70752L12.9897 4.6665L12.8193 4.42578C12.4676 3.9523 12.0477 3.53244 11.5742 3.18066L11.3335 3.01025L11.2925 2.97949C11.0973 2.81802 11.052 2.53199 11.1958 2.31689ZM8 1C8.46686 1 8.92366 1.04585 9.36572 1.1333C9.6365 1.18695 9.8128 1.44989 9.75928 1.7207C9.70569 1.9916 9.44228 2.16785 9.17139 2.11426C8.79293 2.03939 8.40131 2 8 2C7.59869 2 7.20707 2.03939 6.82861 2.11426C6.55772 2.16785 6.29431 1.9916 6.24072 1.7207C6.1872 1.44989 6.3635 1.18695 6.63428 1.1333C7.07634 1.04585 7.53314 1 8 1Z" fill="#3D3C3C"/>
</g>
</svg>

<svg xmlns="http://www.w3.org/2000/svg" width="16" height="16" fill="currentColor" viewBox="0 0 16 16">
  <path d="M9.171 13.886a.5.5 0 0 1 .195.98 7.03 7.03 0 0 1-2.732 0 .5.5 0 1 1 .195-.98 6.029 6.029 0 0 0 2.342 0Zm-6.854-2.69a.5.5 0 0 1 .662.097l.031.04.17.241c.352.474.772.894 1.246 1.245l.24.17.042.031a.5.5 0 0 1-.554.827l-.044-.026-.142-.098a7.036 7.036 0 0 1-1.691-1.691l-.098-.142-.026-.044a.5.5 0 0 1 .164-.65Zm10.704.097a.5.5 0 0 1 .8.597l-.098.142a7.036 7.036 0 0 1-1.833 1.789l-.044.026a.5.5 0 0 1-.512-.857l.24-.17a6.033 6.033 0 0 0 1.416-1.486l.03-.041ZM1 8c0-.467.046-.924.133-1.366a.5.5 0 1 1 .981.195 6.031 6.031 0 0 0 0 2.342.5.5 0 0 1-.98.195A7.033 7.033 0 0 1 1 8Zm13 0c0-.401-.04-.793-.114-1.171l.98-.195a7.03 7.03 0 0 1 0 2.732.5.5 0 1 1-.98-.195C13.96 8.793 14 8.401 14 8Zm.28-1.76a.5.5 0 0 1 .587.394l-.981.195a.5.5 0 0 1 .393-.588ZM4.153 2.154a.5.5 0 0 1 .513.857l-.241.17A6.036 6.036 0 0 0 3.01 4.667l-.03.042a.5.5 0 0 1-.8-.598l.097-.142A7.037 7.037 0 0 1 4.11 2.18l.044-.026Zm7.042.164a.5.5 0 0 1 .65-.164l.044.026.142.098a7.036 7.036 0 0 1 1.691 1.691l.098.142.026.044a.5.5 0 0 1-.826.554l-.031-.042-.17-.24a6.035 6.035 0 0 0-1.246-1.245l-.24-.17-.041-.032a.5.5 0 0 1-.097-.662ZM8 1c.467 0 .924.046 1.366.133a.5.5 0 1 1-.195.981 6.031 6.031 0 0 0-2.342 0 .5.5 0 0 1-.195-.98A7.033 7.033 0 0 1 8 1Z"/>
</svg>
